icons/tokens/0xC76FB75950536d98FA62ea968E1D6B45ffea2A55/logo.svg

<svg xmlns="http://www.w3.org/2000/svg" width="32" height="32" viewBox="0 0 32 32">
  <g fill="none" fill-rule="evenodd">
    <circle cx="16" cy="16" r="16" fill="#FC9FCE"/>
    <path fill="#9D2EE5" d="M20.7132807,4.99260174 C20.7761954,4.99331825 20.831901,5.01494514 20.8790869,5.05361141 C20.9256175,5.09227767 20.9649392,5.14798331 21.024577,5.30658054 C21.0835594,5.46452242 21.1635134,5.72535588 21.1438526,6.18935108 C21.6891125,6.00781624 22.0095837,5.79875625 22.200949,5.67882529 C22.3923142,5.55823896 22.4545735,5.52678166 22.5201095,5.51826197 C22.5849902,5.51039765 22.6538031,5.52481558 22.7042658,5.56282648 C22.7547286,5.60018203 22.7868412,5.65981983 22.8320611,5.75419174 C22.8779363,5.84790828 22.9356081,5.97635894 22.9670654,6.15985986 C22.999178,6.34336079 23.0044209,6.58256736 22.9533028,6.81522032 C22.9120151,7.00330878 22.8333718,7.1868097 22.6295547,7.4306038 C22.9185687,7.6907819 23.1787468,7.98307266 23.4028801,8.30092249 C23.7974071,8.85994496 24.0805228,9.49761069 24.2345325,10.1647676 C25.3434024,9.58149683 25.8637586,9.55855921 26.2196193,9.61360949 C26.5754801,9.66931513 26.7668453,9.80366402 26.8815334,10.0186223 C26.9968768,10.2335805 27.0348877,10.5298034 26.9647642,10.7932583 C26.8939852,11.0567132 26.7150718,11.2887108 26.4706224,11.4741778 C26.2261729,11.6596448 25.9168428,11.7992366 24.9986828,12.1079114 C26.2373141,12.4244505 26.3447932,12.903519 26.34807,13.2213688 C26.3513468,13.5392186 26.2504213,13.6951944 26.099033,13.8177468 C25.9469894,13.9396439 25.7451384,14.0281175 25.3840347,14.063507 C25.0222758,14.0988965 24.5019196,14.0818571 23.868186,13.8786954 C23.5077378,14.4128141 23.2259328,14.6113884 23.0358782,14.8263466 C22.846479,15.0406495 22.748175,15.2713363 22.7501411,15.4869499 C22.7514518,15.7032189 22.8523773,15.9044145 23.2167577,16.2307841 C23.5804828,16.5571536 24.2076627,17.0093523 24.7011491,17.806926 C25.1946356,18.6044996 25.5544285,19.748759 25.455469,20.9434811 C25.3565096,22.1382032 24.7987979,23.3833881 23.7502211,24.4293434 C22.7016444,25.4752987 21.1622027,26.3220244 19.2223357,26.7073764 C17.2824687,27.0927283 14.9421765,27.0167065 13.0606367,26.6156259 C11.1790968,26.2138899 9.75565386,25.4864398 8.61925882,24.597771 C7.48286378,23.7091023 6.63286127,22.6592148 6.05090118,21.4703909 C5.46828573,20.2815671 5.15305735,18.9538068 5.04557823,17.9366873 C4.93809912,16.9195679 5.03836927,16.212434 5.16354312,15.6829027 C5.28871696,15.1527161 5.43879451,14.8007875 5.55282723,14.6192527 C5.66685995,14.4377178 5.74484784,14.4259213 5.81890358,14.4364071 C5.89361467,14.4475482 5.96308288,14.4796609 6.18393935,14.7195228 C6.40479583,14.9587294 6.77638521,15.4056852 7.20040343,15.8041444 C7.62376628,16.2026036 8.09955798,16.552566 8.61073914,16.7170615 C9.12192029,16.8822123 9.66783556,16.8605855 10.2688011,16.7799761 C10.870422,16.6993668 11.5270932,16.5591196 12.3790618,16.2589646 C13.2277536,15.9601202 14.2710874,15.5020232 15.7797272,15.4364872 C15.4042057,15.1317446 15.0693165,14.7758838 14.7907883,14.3807015 C14.2599463,13.6296584 13.9309553,12.7364021 13.8352727,11.8182421 C13.7402455,10.9007374 13.8778712,9.95832909 14.2573249,9.12339986 C14.6367786,8.28847064 15.2580603,7.56102053 16.0208999,7.0328 C16.7837394,6.50392411 17.6881369,6.17427779 18.610229,6.09104702 C18.650206,6.08777021 18.690183,6.08449341 18.73016,6.08187197 C19.5768857,6.02485561 19.9753449,5.64867871 20.1968567,5.42061326 C20.4190239,5.19254782 20.4642438,5.11128313 20.5219155,5.06147573 C20.5802426,5.01101298 20.6503661,4.99135216 20.7132807,4.99260174 Z M19.197432,16.3362971 C19.0584956,16.3729973 18.9333217,16.4929282 18.8861358,16.6384183 C18.8389498,16.7845636 18.8697518,16.9556127 18.9608469,17.0663686 C19.051942,17.1777799 19.2039856,17.228898 19.3481649,17.2826376 C19.4929996,17.3357218 19.6299699,17.3920828 19.7656295,17.4549974 C19.9012891,17.5185674 20.035638,17.5880356 20.164744,17.6660235 C20.2945054,17.7440114 20.4183685,17.8292082 20.5343673,17.9255462 C20.6503661,18.0212288 20.7578453,18.1273972 20.8528725,18.2447067 C20.9472444,18.3620163 21.0285091,18.4904669 21.0907684,18.6274373 C21.1523723,18.7644076 21.1949707,18.9098976 21.2257726,19.0573537 C21.2559192,19.2048098 21.2736139,19.3548874 21.282789,19.5049649 C21.2913087,19.6556978 21.2913087,19.8064307 21.2762354,19.9565083 C21.2611621,20.1059305 21.2310155,20.2546973 21.1818635,20.3969105 C21.1327114,20.5391237 21.064554,20.6747833 20.9839446,20.8019233 C20.9033353,20.9290632 20.8102741,21.0483388 20.7086932,21.1597501 C20.6071124,21.270506 20.4970118,21.3740529 20.3803576,21.4690802 C20.2637035,21.5641075 20.1398403,21.6506151 20.0113897,21.7292583 C19.882939,21.8072462 19.7485902,21.8767144 19.6109645,21.9376629 C19.4733388,21.9986115 19.3317809,22.0510403 19.188257,22.0962602 C19.044733,22.1421354 18.899243,22.1808017 18.7524423,22.2129143 C18.6049861,22.2456824 18.4568747,22.2725521 18.3074525,22.2928683 C18.1586857,22.3138398 18.0086081,22.3289131 17.8585306,22.3387435 C17.7077977,22.3485739 17.5577201,22.3531615 17.4069872,22.3525061 C17.2562543,22.3518507 17.1055214,22.3452971 16.9554439,22.3335007 C16.8053663,22.3210488 16.6559441,22.3033541 16.5071773,22.2791057 C16.3584105,22.2555128 16.2109544,22.2253662 16.064809,22.188666 C15.9186636,22.1526212 15.7744843,22.1100227 15.6316157,22.0608707 C15.4894025,22.0117187 15.3491554,21.9566684 15.2115297,21.8957199 C15.073904,21.8347713 14.9388997,21.7679246 14.8065169,21.6958349 C14.6741341,21.6237453 14.5443727,21.5464127 14.4185435,21.465148 C14.292059,21.383228 14.1701619,21.2973758 14.050231,21.2036592 C13.9296446,21.1099427 13.8123351,21.0090172 13.7094435,20.9074363 C13.6072073,20.8058554 13.5200443,20.7042746 13.4204296,20.561406 C13.3208148,20.4185374 13.2094035,20.2343811 13.2513466,20.1485289 C13.2932896,20.0620213 13.4879317,20.0738178 13.6563593,20.1000322 C13.824787,20.126902 13.9663448,20.1681897 14.1013491,20.1275573 C14.2363533,20.0875804 14.3654593,19.9656833 14.4133006,19.8228147 C14.461142,19.6792908 14.4283739,19.5154507 14.3549736,19.3902768 C14.2815732,19.2657583 14.1681958,19.1799061 14.0548185,19.0534216 C13.9414411,18.9275923 13.8280638,18.7611308 13.8713175,18.6693803 C13.9145713,18.5769745 14.1138009,18.5592798 14.2796071,18.5763191 C14.4447579,18.5933585 14.5764854,18.645132 14.7101789,18.7073912 C14.8438725,18.7703058 14.9795321,18.8437062 15.099463,18.9354567 C15.219394,19.0272071 15.3235963,19.1373077 15.4533577,19.2159509 C15.5831191,19.2939388 15.7384395,19.3398141 15.879342,19.3018032 C16.0195891,19.2631369 16.1454183,19.1405845 16.1899829,18.9983713 C16.2345474,18.8561581 16.1985025,18.6936287 16.1146164,18.5704209 C16.0307303,18.4478685 15.8983475,18.363327 15.7718629,18.2774748 C15.6460337,18.1916225 15.5261027,18.1031489 15.3983074,18.0245056 C15.2705121,17.9465177 15.1348525,17.8783602 14.9952607,17.8206885 C14.855669,17.7636722 14.712145,17.7171416 14.5653443,17.6843736 C14.4185435,17.6516055 14.268466,17.6326001 14.1177331,17.6326001 C13.9670002,17.6319447 13.8156119,17.6509502 13.6727433,17.6981361 C13.5298747,17.7459774 13.3955259,17.8213439 13.2841146,17.9222694 C13.1733587,18.0231949 13.0842296,18.1490241 13.0232811,18.2873052 C12.9623326,18.4249309 12.9282538,18.5750084 12.9217002,18.7001823 C12.9151466,18.8253561 12.9354628,18.9262816 12.9308753,19.0055802 C12.9256324,19.0848789 12.8961412,19.1418952 12.8338819,19.192358 C12.7722781,19.2421654 12.6772508,19.2854192 12.5861557,19.3712714 C12.4944052,19.4571236 12.4059316,19.5862296 12.3554688,19.7277875 C12.3056614,19.8693453 12.2945203,20.0226997 12.3069721,20.1734326 C12.319424,20.3241655 12.3554688,20.4709662 12.4078976,20.6125241 C12.4603265,20.7534266 12.528484,20.8884308 12.6084379,21.0162261 C12.6877366,21.1440214 12.7788317,21.2646077 12.8777911,21.3786405 C12.9760952,21.4920178 13.0829189,21.5988416 13.1949856,21.6997671 C13.3063968,21.8006926 13.423051,21.8957199 13.5436373,21.986815 C13.6635683,22.0772547 13.786776,22.1637623 13.9132606,22.2456824 C14.0397452,22.3269471 14.1695066,22.4042796 14.301234,22.47768 C14.4323061,22.550425 14.566655,22.6192378 14.70297,22.6834631 C14.8392849,22.7476885 14.977566,22.8066709 15.1178131,22.8617212 C15.2587156,22.9161161 15.4009289,22.9652681 15.5444528,23.0091773 C15.6886321,23.0530864 15.8347775,23.0910973 15.9815782,23.1245207 C16.128379,23.1572888 16.2764904,23.1848139 16.4252573,23.2077515 C16.5740241,23.2300338 16.7241016,23.2470731 16.8741792,23.259525 C17.0242567,23.2719768 17.1743343,23.2791858 17.3250672,23.2811519 C17.4758001,23.2837733 17.626533,23.2811519 17.7766105,23.2745983 C17.9273434,23.2673893 18.077421,23.2562482 18.2268432,23.2398642 C18.3769207,23.2234802 18.5256875,23.2025086 18.6744544,23.1762942 C18.8225658,23.1500798 18.9700219,23.1192778 19.1161673,23.0825777 C19.2623127,23.0458775 19.4071474,23.0039344 19.5500159,22.9560931 C19.6922292,22.9089071 19.8331317,22.8551676 19.9714127,22.7948744 C20.1090384,22.7339259 20.2440427,22.6670791 20.3751148,22.5930234 C20.5068422,22.5189677 20.6339821,22.4383583 20.7565345,22.3511954 C20.8797423,22.2640324 20.9977072,22.1709713 21.1104292,22.0707011 C21.2231512,21.970431 21.3299749,21.8642626 21.4295897,21.7515406 C21.5292045,21.6388186 21.6222657,21.519543 21.7068072,21.3950245 C21.7913487,21.270506 21.8680259,21.1407446 21.9335619,21.005085 C21.999098,20.8694254 22.0541483,20.7285229 22.0967467,20.5843436 C22.1400005,20.4401643 22.1708024,20.2920528 22.1904632,20.1426306 C22.2107794,19.9938638 22.2199544,19.8431309 22.2199544,19.692398 C22.2192991,19.5416651 22.2094687,19.3915876 22.1930847,19.24151 C22.1767007,19.0920878 22.1531077,18.943321 22.1190289,18.7965203 C22.0856056,18.6497195 22.041041,18.5055402 21.9853354,18.3652931 C21.9296298,18.2257013 21.862783,18.0900417 21.7854505,17.9609357 C21.7074626,17.8318297 21.6189889,17.7092772 21.5213402,17.5952445 C21.4236915,17.4805564 21.3168677,17.3737327 21.2034904,17.2747733 C21.090113,17.1751585 20.970182,17.0840634 20.8456636,16.9988665 C20.7211451,16.914325 20.5920391,16.8369925 20.4596563,16.7649028 C20.3272734,16.6928132 20.1909585,16.6272771 20.0539881,16.5656732 C19.9176732,16.5047247 19.7807028,16.4490191 19.6352128,16.3972456 C19.4897228,16.3461275 19.3363684,16.2989415 19.197432,16.3362971 Z M20.9254157,9.29948737 C20.3677922,9.29948737 19.915749,9.75153054 19.915749,10.3091541 C19.915749,10.8667776 20.3677922,11.3188207 20.9254157,11.3188207 C21.4830392,11.3188207 21.9350824,10.8667776 21.9350824,10.3091541 C21.9350824,9.75153054 21.4830392,9.29948737 20.9254157,9.29948737 Z"/>
  </g>
</svg>

<svg viewBox="0 0 32 32"><g fill="none" fill-rule="evenodd"><circle cx="16" cy="16" r="16" fill="#FC9FCE"/><path fill="#9D2EE5" d="M20.713 4.993a.26.26 0 01.166.06c.047.04.086.095.146.254.059.158.139.418.119.882.545-.181.866-.39 1.057-.51.191-.12.254-.152.32-.16a.258.258 0 01.183.044c.05.037.083.097.128.191.046.094.104.222.135.406.032.183.037.423-.014.655-.041.188-.12.372-.323.616.289.26.549.552.773.87.394.559.678 1.197.832 1.864 1.108-.584 1.629-.606 1.985-.551.355.055.547.19.662.405.115.215.153.51.083.774-.071.264-.25.496-.494.681-.245.186-.554.325-1.472.634 1.238.316 1.346.796 1.35 1.113.002.318-.099.474-.25.597-.152.122-.354.21-.715.246a3.77 3.77 0 01-1.516-.185c-.36.534-.642.732-.832.947-.19.215-.288.445-.286.66.001.217.102.418.467.745.363.326.99.778 1.484 1.576a5.29 5.29 0 01.754 3.136c-.098 1.195-.656 2.44-1.705 3.486-1.048 1.046-2.588 1.893-4.528 2.278-1.94.386-4.28.31-6.161-.091-1.882-.402-3.305-1.13-4.442-2.018-1.136-.889-1.986-1.939-2.568-3.128-.583-1.188-.898-2.516-1.005-3.533-.108-1.017-.008-1.725.118-2.254.125-.53.275-.882.389-1.064.114-.181.192-.193.266-.183.075.012.144.044.365.284.22.239.592.686 1.016 1.084.424.399.9.749 1.41.913.512.165 1.058.144 1.659.063.601-.08 1.258-.22 2.11-.521.849-.299 1.892-.757 3.4-.823a5.285 5.285 0 01-.988-1.055 5.436 5.436 0 01-.956-2.563 5.24 5.24 0 01.422-2.695 5.173 5.173 0 011.764-2.09 5.436 5.436 0 012.71-.951c.846-.057 1.244-.433 1.466-.661.222-.228.267-.31.325-.36a.283.283 0 01.191-.068zm-1.516 11.343a.468.468 0 00-.31.302.469.469 0 00.074.428c.09.112.243.163.387.217.145.053.282.11.418.172a4.3 4.3 0 01.399.211c.13.078.253.163.37.26.115.095.223.201.318.319a1.805 1.805 0 01.373.812 3.215 3.215 0 01.05.9 1.95 1.95 0 01-.094.44c-.05.142-.117.278-.198.405-.08.127-.174.246-.275.358a3.118 3.118 0 01-.698.57 3.514 3.514 0 01-.4.208 4.8 4.8 0 01-.859.275 6.054 6.054 0 01-1.345.14 6.104 6.104 0 01-.9-.074 5.086 5.086 0 01-.875-.218 5.368 5.368 0 01-.825-.365 6.047 6.047 0 01-.388-.23 5.073 5.073 0 01-.369-.262 3.876 3.876 0 01-.34-.297 2.379 2.379 0 01-.29-.346c-.1-.142-.21-.327-.169-.412.042-.087.237-.075.405-.049.169.027.31.068.445.028a.496.496 0 00.312-.305.54.54 0 00-.058-.433c-.073-.124-.187-.21-.3-.337-.114-.125-.227-.292-.184-.384.044-.092.243-.11.409-.093.165.017.296.07.43.131.134.063.27.137.39.228.12.092.224.202.353.281.13.078.285.124.426.086a.472.472 0 00.311-.304.51.51 0 00-.075-.428c-.084-.122-.217-.207-.343-.293-.126-.085-.246-.174-.374-.252a2.904 2.904 0 00-.833-.34 2.057 2.057 0 00-.447-.052 1.4 1.4 0 00-.445.065 1.099 1.099 0 00-.389.224c-.11.101-.2.227-.26.365a1.184 1.184 0 00-.102.413c-.007.125.013.226.009.306a.243.243 0 01-.097.186c-.062.05-.157.093-.248.18a.936.936 0 00-.23.356c-.05.141-.061.295-.049.445.012.151.048.298.1.44.053.14.121.275.201.403.08.128.17.249.27.363a4.599 4.599 0 00.666.608 6.323 6.323 0 001.159.696 6.31 6.31 0 001.279.441 6.778 6.778 0 00.892.136 7.404 7.404 0 001.353-.02 6.872 6.872 0 00.89-.157 5.864 5.864 0 00.854-.288 4.637 4.637 0 00.786-.444 4.053 4.053 0 00.673-.6c.1-.112.192-.231.277-.356a2.78 2.78 0 00.484-1.252c.02-.15.029-.3.029-.45a4.324 4.324 0 00-.101-.896 2.93 2.93 0 00-.334-.836 2.744 2.744 0 00-.264-.366 3.057 3.057 0 00-.318-.32c-.113-.1-.233-.19-.357-.276a4.615 4.615 0 00-.386-.234 5.957 5.957 0 00-.825-.368c-.145-.05-.299-.098-.438-.06zM20.925 9.3a1.01 1.01 0 100 2.02 1.01 1.01 0 000-2.02z"/></g></svg>
